X:1
T:D minor Daniel Belknap, 1800
T:Adapted from Autumn: An Ode by Samuel Johnson, 1709-1784
T:Winter
T:Transcribed from The Evangelical Harmony, 1800.
%%score [ 1 2 3 4 ]
L:1/8
Q:1/4=120
M:4/4
K:F
V:1 treble nm="Treble" snm="Tr."
V:2 treble nm="Counter" snm="C."
V:3 treble-8 nm="Tenor" snm="T."
V:4 bass nm="Bass" snm="B."
V:1
"^1. 'Twas spring, 'twas summer, all was gay;   The flowers ___  of     spring are swept  a  – way;   Now   autumn  bends   a" A4 | %1
 d6 e2 | f2 ed c>B A2 | A6 A2 | (A3 BAG) F2 | B6 A2 | A4 G4 | c8 | B4 A2 G2 | (A2 d4) d2 | %10
"^1. clou–dy   brow,  And summer's sweets desert    the  bough.        Now naked and deformed are seen     The meadows lately" d4 (B2 G2) | %11
 A6 A2 | F2 B2 df ec | A4 A4 | A8 | z4 d4 | d2 c2 c2 d2 | c>B A2 G4- | G4 A4 | d3 d A2 A2 | %20
"^1. dressed in green;   The   groves and fields are disarrayed; The songsters of       the       wood     have     fled." G4 c4 | %21
 c6 cB | A2 A2 A2 A2 | G2 c2 c2 c2 | d3 d A2 GA | B4 A4 | A8 |] %27
V:2
 D4 | F6 A2 | A2 G2 F>G E2 | F6 E2 | (D3 CDE) F2 | G6 F2 | (F2 C4) D2 | E8 | (G3 F) E2 E2 | %9
 (F2 D4) AG | F4 F4 | E6 E2 | F2 FE D2 E2 | (F2 D2) ^C4 | D8 | z4 D4 | F2 E2 E2 F2 | E2 F2 E4- | %18
 E4 D4 | D3 E F2 F2 | G4 G4 | F6 C2 | F2 E2 F2 FE | D2 E2 E2 F2 | F3 E D2 D2 | D4 ^C4 | D8 |] %27
V:3
"^2. O,   what remains, what lin–gers   yet,     To   cheer _____ me     in      the  dark–ening hour?  The  grape  remains, the" d4 | %1
 A6 c2 | d2 e2 f>e d^c | d6 e2 | (f3 gfe) dc | d6 d2 | (c3 d c2) B2 | A8 | d4 c2 d2 | (c2 A4) de | %10
"^2. friend of    wit,    In  love and mirth of      migh –  ty  power.   Still, still the jocund strain shall flow,  The pulse with vigorous" f4 d4 | %11
 ^c6 A2 | d2 A2 B2 AG | F4 E4 | D8 | z4 A4 | F2 A2 G2 F2 | c2 c2 c4- | c4 d4 | A3 A d2 ^c2 | %20
"^2. rap – ture    beat;    My Stella with new charms shall glow, And   eve –  ry   bliss    in          wine   shall    meet." d4 e4 | %21
 f6 e2 | d2 ^c2 d2 A2 | B2 A2 G2 A2 | F3 G A2 BA | (G2 F2) E4 | D8 |] %27
V:4
 D,4 | D,6 A,2 | F,2 G,2 A,2 A,,2 | D,6 C,2 | D,6 A,2 | G,6 D,2 | F,4 E,4 | A,,8 | G,,4 A,,2 A,,2 | %9
 D,6 F,E, | D,4 D,4 | A,6 A,2 | D,2 F,2 G,2 F,E, | D,4 A,,4 | D,8 | z4 D,4 | D,2 A,,2 C,2 F,2 | %17
 C,2 F,2 C,4- | C,4 F,4 | D,3 D, D,2 A,2 | G,4 C,4 | F,6 A,2 | D,2 A,,2 D,2 F,2 | G,2 F,2 C,2 F,2 | %24
 D,3 E, F,E, D,2 | G,,4 A,,4 | D,8 |] %27

